X:WFS 13-07 01
T:Oscar Woods' Jig
T:Tiger Smith's Jig
S:Walthamstow folk session 2013-07-09
Z:<djl@colourcountry.net>
M:6/8
K:G
P:A
BAG BAG |1 B2{c}d ded :|2 A2A A3 :|3 Bcd e3 d2g dBG A3 G3 :|
P:B
B2d d2B |1 c2e e2c :|2 c2A A3 :|3 c2e e3 d2g dBG A3 G3 :|

